Adwaita++/actions/16/color-gradient.svg

<svg height="16" viewBox="0 0 16 16" width="16" xmlns="http://www.w3.org/2000/svg">
  <g fill="#474747">
    <rect height="14" opacity=".3" rx="2" width="14" x="1" y="1"/>
    <path d="m4 2a2 2 0 0 0 -2 2 2 2 0 0 0 2 2 2 2 0 0 0 1.0136719-.2792969l5.2656251 5.2656249a2 2 0 0 0 -.279297 1.013672 2 2 0 0 0 2 2 2 2 0 0 0 2-2 2 2 0 0 0 -2-2 2 2 0 0 0 -1.013672.279297l-5.2656249-5.2656251a2 2 0 0 0 .2792969-1.0136719 2 2 0 0 0 -2-2z"/>
  </g>
</svg>

<svg xmlns="http://www.w3.org/2000/svg" width="16" height="16" version="1.1" viewBox="0 0 16 16">
 <defs>
  <style id="current-color-scheme" type="text/css">
   .ColorScheme-Text { color:#474747; } .ColorScheme-Highlight { color:#4285f4; }
  </style>
 </defs>
 <rect style="opacity:0.3;fill:currentColor" class="ColorScheme-Text" width="14" height="14" x="1" y="1" rx="2" ry="2"/>
 <path style="fill:currentColor" class="ColorScheme-Text" d="M 4 2 A 2 2 0 0 0 2 4 A 2 2 0 0 0 4 6 A 2 2 0 0 0 5.0136719 5.7207031 L 10.279297 10.986328 A 2 2 0 0 0 10 12 A 2 2 0 0 0 12 14 A 2 2 0 0 0 14 12 A 2 2 0 0 0 12 10 A 2 2 0 0 0 10.986328 10.279297 L 5.7207031 5.0136719 A 2 2 0 0 0 6 4 A 2 2 0 0 0 4 2 z"/>
</svg>
